X:1
T:Ad coenam Agni
T:Ad coenam Agni
T:André Vierendeels (12/09/10)
C:André Vierendeels
C:(12/09/10)
%%score [ 1 2 3 4 ]
L:1/8
Q:1/4=120
M:2/4
K:G
V:1 treble nm="Soprano" snm="S"
V:2 treble nm="Alto" snm="A"
V:3 treble-8 nm="Tenor" snm="T"
V:4 bass nm="Bass" snm="B"
V:1
 E4 |[M:2/2] E2- F2 G4 | E4 D4 | G4 A4 | !fermata!B4 B4 | A4 d4 | e4 d2- ^c2 | B4 ^A4 | %8
w: Ad|coe- * nam|A- gni|pro- vi-|di, sto-|lis in|al- bis _|can- di-|
 !fermata!B4 B4 | B4 d4 | A4 G2- F2 | C4 E4 | !fermata!F4 G4 | F4 E4 | A4 B2 A2 | G2 F2 E2- ^D2 | %16
w: di, post|trans- i-|tum ma- *|ris ru-|bri Chri-|sto ca-|na- mus _|pin- * ci- *|
 !fermata!E8 |] %17
w: pi.|
V:2
 B,4 |[M:2/2] B,2- C2 D4 | B,4 F4 | E4 E4 | !fermata!G4 D4 | E4 F4 | A2- G2 A4 | F4 F4 | %8
w: Ad|coe- * nam|A- gni|pro- vi-|di, sto-|lis in|al- * bis|can- di-|
 !fermata!F4 ^G4 | F4 F4 | ^C4 D4 | E4 B,4 | !fermata!B,4 D4 | D4 G4 | F4 D2- E2 | %15
w: di, post|trans- i-|tum ma-|ris ru-|bri Chri-|sto ca-|na- mus _|
"^-natural" D2 C2 B,4 | !fermata!B,8 |] %17
w: prin- * ci-|pi.|
V:3
 G4 |[M:2/2] G2- A2 B4 | G4 A4 | c4 c4 | !fermata!B4 B4 | c4 A4 | c2 B2 d2- e2 | d2 ^c6 | %8
w: Ad|coe- * nam|A- gni|pro- vi-|di, sto-|lis in|al- * bis- *|can- di-|
 !fermata!^d4 B4 | d4 A4 | E4 A4 | G4 G4 | !fermata!^d4 B4 | A2- B2 B4 | d4 F2- A2 | B2 A2 F4 | %16
w: di, post|trans- i-|tum ma-|ris ru-|bri Chri-|sto _ ca-|na- mus _|prin- * ci-|
 !fermata!^G8 |] %17
w: pi.|
V:4
 E,4 |[M:2/2] E,2- D,2 G,4 | E,4 D,4 | E,4 A,,4 | !fermata!E,4 G,4 | A,4 D,4 | A,2- E,2 F,2- A,2 | %7
w: Ad|coe- * nam|A- gni|pro- vi-|di, sto-|lis in|al- * bis _|
 B,2 F,6 | !fermata!B,4 E,4 | B,,4 D,4 | A,,4 D,4 | E,4 E,4 | !fermata!B,4 G,4 | D,2- B,,2 E,4 | %14
w: can- di-|di, post|trans- i-|tum ma-|ris ru-|bri Chri-|sto _ ca-|
 D,4 B,,2- ^C,2 | D,4 B,,4 | !fermata!E,8 |] %17
w: na- mus _|prin- ci-|pi|

